!!!!SEGMENT: pl-wtm--r-2023--002_smietanski-emil-wladyslaw--marcia-zingaresca-op-18.krn
!!!cenid: 18xx:1974
!!!COM: Śmietański, Emil Władysław
!!!COM-rismid: pe50041781
!!!CDT: 1845-1886
!!!CNT: Polish
!!!OPR: Marcia zingaresca op. 18
!!!OTL: [march 2]
!!!OMV: 002
!!!PDT: 1867
!!!AGN: Secular; March
!!!OMD: Allegretto.
!!!SMS-siglum: PL-Wtm
!!!SMS-shelfmark: R 2023
!!!SMS-shelfwork: 001-002 M
!!!SMS-variant:
!!!SMS-altvar:
!!!NIFC-rismid: 1001112461
!!!URL-scan: http://repozytorium.nifc.pl/skany/pl-wtm-nut--r2023
!!!ONB-nifc: UWAGA: II Marcia zingaresca
!!!key:
**kern	**kern	**dynam
*part2	*part1	*part1
*staff2	*staff1	*
*Iempty	*Iforte	*
*	*I"Fortepian	*
*>[A,B,B,C]	*>[A,B,B,C]	*
*clefF4	*clefG2	*
*k[f#c#g#]	*k[f#c#g#]	*
*f#:	*f#:	*
*M2/4	*M2/4	*
=1	=1	=1
*>A	*>A	*
!	!LO:TX:i:b:t=marcato	!
8FF#^^\L	4cc#\ 4a^^\	.
8f#\J 8c#\ 8A\	.	.
8D^^\L	4ff#\ 4a^^\	.
8f#\J 8d\ 8A\	.	.
=2	=2	=2
.	32qqff#/	.
8AA\L	8ee#X\L 8a\	.
8c#\J 8A\	8ee#\J 8a\	.
8BB#X\L	8.dd\L 8.g#\	.
8d\J 8B#X\	.	.
.	16ff#\Jk	.
=3	=3	=3
8AA\L	16aa\LL 16f#\	p
.	16g#\	.
8c#\J 8F#\	16aa\ 16a\	.
.	16b#X\JJ	.
16c#\LL 16E#X\	8gg#\L 8cc#\	.
16d\J	.	.
8C#\J	16gg#\L 16cc#\ 16e#X\	.
.	16g#\JJ	.
=4	=4	=4
8F#'\L	(16gg#\LL 16cc#\ 16a\	f
.	16ff#\	.
.	32qqgg#/	.
8C#'\J	16ff#\ 16cc#\ 16a\	.
.	16ee#X\JJ)	.
8FF#\L	4ff#\ 4cc#\ 4a\	.
8c#\J 8A\	.	.
=5	=5	=5
8FF#\L	4cc#\ 4a^^\	.
8f#\J 8c#\ 8A\	.	.
8D\L	4ff#\ 4a^^\	.
8f#\J 8d\ 8A\	.	.
=6	=6	=6
.	32qqff#/	.
8AA\L	8ee#X\L 8a\	.
8c#\J 8A\	8ee#\J 8a\	.
8BB#X\L	8.dd\L 8.g#\	.
8d\J 8B#X\	.	.
.	16ff#\Jk	.
!!LO:LB:g=original
=7	=7	=7
8AA\L	16aa\LL 16f#\	p
.	16g#\	.
8c#\J 8F#\	16aa\ 16a\	.
.	16b#X\JJ	.
16c#\LL 16E#X\	8gg#\L 8cc#\	.
16d\J	.	.
8C#\J	16gg#\L 16cc#\ 16e#X\	.
.	16g#\JJ	.
=8	=8	=8
8F#\L	16gg#\LL 16cc#\ 16a\	f
.	16ff#\	.
.	32qqgg#/	.
8C#\J	16ff#\ 16cc#\ 16a\	.
.	16ee#X\JJ	.
4FF#\	4ff#\ 4cc#\ 4a\	.
=9!|:	=9!|:	=9!|:
*>B	*>B	*
8C#'\L	8gg#\L 8cc#\ 8e#X'\	pp
*clefG2	*	*
8cc#\ 8g#\ 8e#X'\	8ee#X'\	.
8a\ 8e#'\	8cc#'\	.
*clefF4	*	*
8E#X'\J	8ee#'\J	.
=10	=10	=10
8GG#'\L	8ee#X\L 8b#X\ 8g#'\	.
*clefG2	*	*
8b#X\ 8f#'\	8dd'\J	.
8cc#\ 8e#X'\	4ee#\	.
*clefF4	*	*
8GG#'\J	.	.
=11	=11	=11
8D'\L	8ff#\L 8b#X\ 8f#'\	.
*clefG2	*	*
8b#X\ 8f#'\	8gg#'\	.
8dd\ 8a'\	8ff#'\	.
*clefF4	*	*
8AA'\J	8ee#X\J 8cc#\ 8a'\	.
=12	=12	=12
8AA'\L	8ee#X\L 8cc#\ 8a'\	.
*clefG2	*	*
8cc#\J 8a'\	16ff#'\L	.
.	16gg#'\JJ	.
*clefF4	*	*
8F#'\L	8aa\L 8cc#\ 8a'\	.
8E#X'\J	8gg#\J 8cc#\ 8g#'\	.
=13	=13	=13
8C#'\L	8gg#\L 8cc#\ 8e#X'\	.
*clefG2	*	*
8cc#\ 8g#\ 8e#X'\	8ee#X'\	.
8a\ 8e#'\	8cc#'\	.
*clefF4	*	*
8E#X'\J	8ee#'\J	.
!!LO:LB:g=original
=14	=14	=14
8GG#'\L	8ee#X\L 8b#X\ 8g#'\	.
*clefG2	*	*
8b#X\ 8f#'\	8dd'\J	.
8cc#\ 8e#X'\	4ee#^^\	.
*clefF4	*	*
8GG#'\J	.	.
=15	=15	=15
8D'\L	8ff#\L 8b#X\ 8f#'\	.
*clefG2	*	*
8b#X\ 8f#'\	8gg#'\	.
8dd\ 8a'\	8ff#'\	.
*clefF4	*	*
8AA'\J	8ee#X\J 8cc#\ 8a'\	.
=16	=16	=16
8D'\L	8ff#\L 8b#X\ 8f#'\	.
*clefG2	*	*
8b#X\J 8f#'\	8gg#'\J	.
.	32qqgg#/	.
8cc#\L 8e#X'\	4ccc#\	.
*clefF4	*	*
8C#'\J	.	.
=17||	=17||	=17||
8FF#\L	4cc#\ 4a^^\	f
8f#\J 8c#\ 8A\	.	.
8D\L	4ff#\ 4a^^\	.
8f#\J 8d\ 8A\	.	.
=18	=18	=18
.	32qqff#/	.
8AA\L	8ee#X\L 8a\	.
8c#\J 8A\	8ee#\J 8a\	.
8BB#X\L	8.dd\L 8.g#\	.
8d\J 8B#X\	.	.
.	16ff#\Jk	.
=19	=19	=19
8AA\L	16aa\LL 16f#\	.
.	16g#\	.
8c#\J 8F#\	16aa\ 16a\	.
.	16b#X\JJ	.
16c#\LL 16E#X\	8gg#\L 8cc#\	.
16d\J	.	.
8C#\J	16gg#\L 16cc#\ 16e#X\	.
.	16g#\JJ	.
=20	=20	=20
8F#\L	16gg#\LL 16cc#\ 16a\	.
.	16ff#\	.
.	32qqgg#/	.
8C#\J	16ff#\ 16cc#\ 16a\	.
.	16ee#X\JJ	.
8FF#\L	4ff#\ 4cc#\ 4a\	.
8c#\J 8A\	.	.
!!LO:LB:g=original
=21	=21	=21
8FF#\L	4cc#\ 4a\	.
8f#\J 8c#\ 8A\	.	.
8D\L	4ff#\ 4a\	.
8f#\J 8d\ 8A\	.	.
=22	=22	=22
.	32qqff#/	.
8AA\L	8ee#X\L 8a\	.
8c#\J 8A\	8ee#\J 8a\	.
8BB#X\L	8.dd\L 8.g#\	.
8d\J 8B#X\	.	.
.	16ff#\Jk	.
=23	=23	=23
8AA\L	16aa\LL 16f#\	.
.	16g#\	.
8c#\J 8F#\	16aa\ 16a\	.
.	16b#X\JJ	.
16c#\LL 16E#X\	8gg#\L 8cc#\	.
16d\JJ	.	.
8C#\	16gg#\L 16cc#\ 16e#X\	.
.	16g#\JJ	.
=24	=24	=24
8F#\L	16gg#\LL 16cc#\ 16a\	.
.	16ff#\	.
.	32qqgg#/	.
8C#\J	16ff#\ 16cc#\ 16a\	.
.	16ee#X\JJ	.
4FF#\	4ff#\ 4cc#\ 4a\	.
=25:|!	=25:|!	=25:|!
*>C	*>C	*
*k[f#c#]	*k[f#c#]	*
8DD\L	16ff#'\LL	p
.	16aa'\	.
8d\J 8A\ 8F#\	16ff#'\	.
.	16dd'\JJ	.
8d\L 8A\ 8F#\	16a'\LL	.
.	16dd'\	.
8d\J 8B-X\ 8G\	16b-X'\	.
.	16g'\JJ	.
=26	=26	=26
8AA\L	16a'\LL	.
.	16g'\	.
8e-X\J 8c#X\ 8G\	16b-X'\	.
.	16cc#'\JJ	.
4d\ 4A\ 4F#\	16dd'\LL	.
.	16a'\	.
.	16f#'\	.
.	16a'\JJ	.
!!LO:LB:g=original
=27	=27	=27
8FF#\L	16dd\LL	.
.	16f#\	.
8d\J 8A\ 8F#\	16dd\	.
.	16ff#\JJ	.
!LO:TX:t=P:problem:mixed beam	!	!
8c#X\L 8G\ 8E-X\	16cc#\LL	.
.	16g\	.
!	!LO:TX:i:b:t=sempre stacatissimo.	!
8EE-X/J	16ee-X\	.
.	16gg\JJ	.
=28	=28	=28
!LO:TX:t=P:problem:mixed beam	!	!
8EE-X/L	16gg\LL	.
.	16ccc#\	.
8g\J 8e-X\ 8c#\	16gg\	.
.	16cc#\JJ	.
!LO:TX:t=P:problem:mixed beam	!	!
8f#\L 8d\ 8A\	16ff#\LL	.
.	16ddd\	.
8DD/J	16ff#\	.
.	16dd\JJ	.
=29	=29	=29
!LO:TX:t=P:problem:mixed beam	!	!
8DD/L	16ff#\LL	.
.	16aa\	.
8d\J 8A\ 8F#\	16ff#\	.
.	16dd\	.
8d\L 8A\ 8F#\	16a\	.
.	16dd\	.
8d\J 8B-X\ 8G\	16b-X\	.
.	16g\JJ	.
=30	=30	=30
8AA\L	16a\LL	.
.	16g\	.
8e-X\J 8c#\ 8G\	16b-X\	.
.	16cc#\JJ	.
4d\ 4A\ 4F#\	16dd\LL	.
.	16a\	.
.	16f#\	.
.	16a\JJ	.
=31	=31	=31
8FF#\L	16dd\LL	.
.	16f#\	.
8d\J 8A\ 8F#\	16dd\	.
.	16ff#\JJ	.
!LO:TX:t=P:problem:mixed beam	!	!
8c#X\L 8G\ 8E-X\	16cc#\LL	.
.	16g\	.
8EE-X/J	16ee-X\	.
.	16gg\JJ	.
=32	=32	=32
!LO:TX:t=P:problem:mixed beam	!	!
8EE-X/L	16gg\LL	.
.	16ccc#\	.
8g\J 8e-X\ 8c#\	16gg\	.
.	16cc#\JJ	.
!LO:TX:t=P:problem:mixed beam	!	!
8f#\L 8d\ 8A\	16ff#\LL	.
.	16ddd\	.
8DD/J	16ff#\	.
.	16dd\JJ	.
!!LO:LB:g=original
=33	=33	=33
8FF#\L	16aa#X\LL	.
.	16ccc#\	.
8f#\J 8c#\ 8A#X\	16aa#\	.
.	16ff#\	.
8f#\L 8c#\ 8A#\	16cc#\	.
.	16ff#\	.
8f#\J 8d\ 8B\	16dd\	.
.	16b\JJ	.
=34	=34	=34
8C#\L	16cc#\LL	.
.	16b\	.
8g\J 8e#X\ 8B\	16dd\	.
.	16ee#X\	.
4f#\ 4c#\ 4A#X\	16ff#\	.
.	16cc#\	.
.	16a#X\	.
.	16cc#\JJ	.
=35	=35	=35
8AA#X\L	16ff#\LL	.
.	16a#X\	.
8f#\J 8c#\ 8A#X\	16ff#\	.
.	16aa#X\JJ	.
8e#X\L 8B\ 8G\	16ee#X\LL	.
.	16b\	.
8GG\J	16gg\	.
.	16bb\JJ	.
=36	=36	=36
8GG\L	16bb\LL	.
.	16eee#X\	.
*clefG2	*	*
8b\J 8g\ 8e#X\	16bb\	.
.	16ee#X\JJ	.
8a#X\L 8f#\ 8c#\	16aa#X\LL	.
.	16fff#\	.
*clefF4	*	*
8FF#\J	16aa#\	.
.	16ff#\JJ	.
=37	=37	=37
8BB-X\L	16ddd\LL	.
.	16fffn\	.
*clefG2	*	*
8b-X\J 8fn\ 8d\	16ddd\	.
.	16bb-X\JJ	.
8b-\L 8f\ 8d\	16ffn\LL	.
.	16bb-\	.
8b-X\J 8g-X\ 8e-X\	16gg-X\	.
.	16ee-X\JJ	.
=38	=38	=38
8Fn/L	16ff#\LL	.
.	16ee-X\	.
8cc-/J 8a/ 8e-X/	16gg-X\	.
.	16aa\JJ	.
4b-X/ 4fn/ 4d/	16bb-X\LL	.
.	16ffn\	.
.	16dd\	.
.	16ff\JJ	.
*clefF4	*	*
!!LO:LB:g=original
=39	=39	=39
8BB-X\L	16ddd\LL	.
.	16fffn\	.
8b-X\J 8fn\ 8d\	16ddd\	.
.	16bb-X\JJ	.
8b-\L 8f\ 8d\	16ffn\LL	.
.	16bb-X\	.
8b-X\J 8g-X\ 8e-X\	16gg-X\	.
.	16ee-X\JJ	.
=40	=40	=40
8b-X\L 8fn\ 8d\	16ffn\LL	.
.	16bb-X\	.
8b-\J 8g-X\ 8e-X\	16gg-X\	.
.	16ee-X\JJ	.
8a\L 8en\ 8c#\	16een\LL	.
.	16aa\	.
8a\J 8fn\ 8d\	16ffn\	.
.	16dd\JJ	.
=41	=41	=41
8E\L	16ee\LL	.
.	16dd\	.
8b-X\J 8g#X\ 8d\	16ffn\	.
.	16gg#X\JJ	.
!	!LO:TX:b:t=cresc.:ext=ut:problem:dynamics with extention lines	!LO:HP:cresc.
8D#X\L	16dd#X\LL	<
.	16cc#\	.
8a\J 8gn\ 8c#\	16ee\	.
.	16ggn\JJ	.
=42	=42	=42
8Dn\L	16ddn\LL	.
.	16ccn\	.
8g#X\J 8f#\ 8cn\	16dd#X\	.
.	16ff#\JJ	.
8C#X\L	16cc#X\LL	.
.	16b\	.
8gn\J 8fn\ 8B\	16ddn\	.
.	16ffn\JJ	.
=43	=43	=43
8Cn\L	16ccn\LL	.
.	16b-X\	.
8f#\J 8e\ 8B-X\	16cc#X\	.
!	!LO:TX:t=P:problem:skreślona kreska taktowa	!
.	16ee\JJ	.
8BBn\L	16bn\LL	.
.	16a\	.
8fn\J 8d#X\ 8A\	16ccn\	.
.	16dd#X\JJ	.
=44	=44	=44
8BB-X\L	16b-X\LL	.
.	16g#X\	.
8e\J 8d\ 8G#X\	16bn\	.
.	16dd\JJ	.
8AA\L	16a\LL	[
.	16gn\	.
8e-X\J 8c#\ 8Gn\	16b-X\	.
.	16cc#\JJ	[[
!!LO:PB:g=original
=45	=45	=45
8DD\L	16ff#'\LL	p
.	16aa'\	.
8d\J 8A\ 8F#\	16ff#'\	.
.	16dd'\JJ	.
8d\L 8A\ 8F#\	16a'\LL	.
.	16dd'\	.
8d\J 8B-X\ 8G\	16b-X'\	.
.	16g'\JJ	.
=46	=46	=46
8AA\L	16a\LL	.
.	16g\	.
8e-X\J 8c#\ 8G\	16b-X\	.
.	16cc#\JJ	.
4d\ 4A\ 4F#\	16dd\LL	.
.	16a\	.
.	16f#\	.
.	16a\JJ	.
=47	=47	=47
8FF#\L	16dd\LL	.
.	16f#\	.
8d\J 8A\ 8F#\	16dd\	.
.	16ff#\JJ	.
!LO:TX:t=P:problem:mixed beam	!	!
8c#\L 8G\ 8E-X\	16cc#\LL	.
.	16g\	.
8DD/J	16ee-X\	.
.	16gg\JJ	.
=48	=48	=48
!LO:TX:t=P:problem:mixed beam	!	!
8EE-X/L	16gg\LL	.
.	16ccc#\	.
8g\J 8e-X\ 8c#\	16gg\	.
.	16cc#\JJ	.
!LO:TX:t=P:problem:mixed beam	!	!
8f#\L 8d\ 8A\	16ff#\LL	.
.	16ddd\	.
8DD/J	16ff#\	.
.	16dd\JJ	.
=49	=49	=49
!LO:TX:t=P:problem:mixed beam	!	!
8DD/L	16gg'\LL	<
.	16bb-X'\	.
8e-X\J 8B-X\ 8G\	16gg'\	.
.	16ee-X'\JJ	.
8e-\L 8B-\ 8G\	16b-X'\LL	.
.	16ee-'\	.
8e-\J 8c-X\ 8A-X\	16cc-X'\	.
.	16a-X'\JJ	.
=50	=50	=50
8BB-X\L	16b-X\LL	.
.	16a-X\	.
8f-X\J 8d\ 8A-X\	16cc-X\	.
.	16dd\JJ	.
4e-X\ 4B-X\ 4G\	16ee-X\LL	.
.	16b-\	.
.	16g\	.
.	16b-\JJ	.
!!LO:LB:g=original
=51	=51	=51
8GG\L	16ee-X\LL	.
.	16g\	.
8e-X\J 8B-X\ 8G\	16ee-\	.
.	16gg\JJ	.
!LO:TX:t=P:problem:mixed beam	!	!
8d\L 8A-X\ 8F-\	16dd\LL	.
.	16a-X\	.
8FF-X/J	16ff-X\	.
.	16aa-X\JJ	.
=52	=52	=52
!LO:TX:t=P:problem:mixed beam	!	!
8FF-/L	16aa-X\LL	.
.	16ddd\	.
8a-X\J 8f-X\ 8d\	16aa-\	.
.	16dd\JJ	.
!LO:TX:t=P:problem:mixed beam	!	!
8g\L 8e-X\ 8B-X\	16gg\LL	.
.	16eee-X\	.
8EE-X/J	16gg\	.
.	16ee-X\JJ	.
=53	=53	=53
!LO:TX:t=P:problem:mixed beam	!	!
8DD#X\L	16gg#X\LL	f
.	16bbn\	.
8en\J 8Bn\ 8G#X\	16gg#\	.
.	16een\JJ	.
8e\L 8B\ 8G#\	16bn\LL	.
.	16ee\	.
8e\J 8cn\ 8An\	16ccn\	.
.	16an\JJ	.
=54	=54	=54
16G#X\LL	(16ffn\LL 16b\ 16g#X\	.
16e\	16ee\	.
.	32qqffX/	.
16G#\	16ee\ 16b\ 16g#\	.
16D#X\JJ	16dd#X\JJ)	.
16GG#X\LL	4ee\ 4b\ 4g#\	.
16E\	.	.
16GG#\	.	.
16DD#X\JJ	.	.
=55	=55	=55
8EE-X\L	16aa'\LL	f
.	16cccn'\	.
8fn\J 8cn\ 8A\	16aa'\	.
.	16ffn'\JJ	.
8f\L 8c\ 8A\	16ccn\LL	.
.	16ff\	.
8f\J 8d-X\ 8B-X\	16dd-X\	.
.	16b-X\JJ	.
=56	=56	=56
16A\LL	(16gg-X\LL 16ccn\ 16a\	.
16fn\	16ffn\	.
.	32qqgg-/	.
16A\	16ff\ 16cc\ 16a\	.
16E-X\JJ	16ee\JJ)	.
16AA\LL	4ff\ 4cc\ 4a\	.
16Fn\	.	.
16AA\	.	.
16EE-X\JJ	.	.
!!LO:LB:g=original
=57	=57	=57
*	*8va	*
8EE-X\L	16aaa\LL	pp
.	16ccccn\	.
*clefG2	*	*
8ffn\J 8cc#\ 8a\	16aaa\	.
!	!LO:TX:i:b:t=staccato.	!
.	16fffn\JJ	.
8ff\L 8cc#\ 8a\	16cccn\LL	.
.	16fff\	.
8ff\J 8dd-\ 8a\	16ddd-X\	.
.	16aa\JJ	.
=58	=58	=58
8ee\L 8b\ 8g#X\	16bb\LL	.
.	16eee\	.
8ee\J 8ccn\ 8g#\	16ccc#\	.
.	16gg#X\JJ	.
8ee-X\L 8b-X\ 8gn\	16bb-X\LL	.
.	16eee-X\	.
8ee-\J 8cc-X\ 8g\	16ccc-X\	.
.	16ggn\JJ	.
*	*X8va	*
=59	=59	=59
8dd\L 8a\ 8f#\	16aa\LL	.
.	16ddd\	.
8dd\J 8b-X\ 8f#\	16bb-X\	<
.	16ff#\JJ	.
8cc#\L 8g#X\ 8e#X\	16gg\LL	.
.	16ccc#\	.
8cc#\J 8a\ 8e#\	16aa\	.
.	16ee#X\JJ	.
=60	=60	=60
8ccn\L 8gn\ 8en\	16gg\LL	.
.	16cccn\	.
8cc\J 8a-X\ 8e\	16aa-X\	.
.	16ee\JJ	.
8b\L 8f#\ 8d#X\	16ff#\LL	.
.	16bb\	.
8b\J 8g\ 8d#\	16gg\	.
.	16dd#X\JJ	[
=61	=61	=61
(8b-X\L 8fn\ 8d\	(16ffn\LL	f
.	16bb-X\	.
8B-X\J)	16ff\	.
.	16b-X\JJ	.
(>8f/L 8d/ 8B-/	16b-\LL	.
.	16ff\	.
8Fn/J)	16b-\	.
.	16fn\JJ)	.
*clefF4	*	*
=62	=62	=62
(8fn\L 8c#\ 8A\	(16a\LL	.
.	16ffn\	.
8Fn\J)	16a\	.
.	16fn\JJ	.
(8c#\L 8A\ 8F\	16f\LL	.
.	16a\	.
8C#\J)	16f\	.
.	16A\JJ)	.
!!LO:LB:g=original
=63	=63	=63
(8A\L 8E\ 8C#\	(16e/LL	ff
.	16a/	.
8AA\J)	16e/	.
.	16A/JJ	.
(>8E\L 8C#\ 8AA\	16A</LL	.
.	16e</	.
8EE\J)	16A</)	.
.	16E</JJ	.
=64	=64	=64
8C#\L 8AA\ 8EE\	(<16E</LL	.
.	16A</	.
8CC#\J	16E</	.
.	16AA</JJ)	.
8C#\L 8AA\ 8EE\	(<16E</LL	.
.	16A</	.
8CC#\J	16E</	.
.	16AA</JJ)	.
=65	=65	=65
8EE#X\L 8CC#\	16C#</LL	p
!	!LO:TX:b:t=staccato. e...:dur=9e:ext=ut:problem:text with extention lines	!
.	16AA</	.
8AA\J 8EE#\	16C#</	.
.	16E#X</JJ	.
8AA\L 8EE#\	16E#</LL	.
.	16C#</	.
8C#\J 8AA\	16E#</	.
.	16A</JJ	.
=66	=66	=66
8E\L 8AA\	16A</LL	.
.	16En</	.
8E\J 8C#\	16A</	.
!	!LO:TX:b:t=cresc.:ext=ut:problem:dynamics with extention lines	!LO:HP:cresc.
.	16c#</JJ	<
8E\L 8C#\	16c#</LL	.
.	16A</	.
8A\J 8E\	16c#</	.
.	16e</JJ	.
=67	=67	=67
8A\L 8E#X'\	16e#X\LL	.
.	16c#\	.
8c#\J 8A'\	16e#\	.
.	16a\JJ	.
8c#\L 8A\	16a\LL	.
.	16e#\	.
8e#X\J 8c#\	16a\	[
.	16cc#\JJ	.
*clefG2	*	*
=68	=68	=68
8e#X/L 8c#/	16cc#\LL	.
.	16g#X\	.
8g#X/J 8e#/	16cc#\	.
.	16ee#X\JJ	.
8g#/L 8e#/	16ee#\LL	.
.	16cc#\	.
8cc#/J 8g#/	16ee#\	.
!	!LO:SIC:v:s=16gg#	!
.	16ggX\JJ	.
*clefF4	*	*
*clefG2	*	*
!!LO:LB:g=original
=69	=69	=69
2a/ 2e#X/ 2c#/	16ee#X'\LL	<
.	16cc#'\	.
.	16ee#'\	.
.	16aa'\	.
.	(16aa\	.
.	16ccc#\	.
.	16aa'\	.
.	16ee#'\JJ)	[[
=70	=70	=70
2a/ 2en/ 2c#/	(16aa\LL	>
.	16eeen\	.
.	16aa\	.
.	16een\	.
.	16ee\	.
.	16aa\	.
.	16ee\	.
.	16a'\JJ)	]
=71	=71	=71
2e#X/ 2c#X/ 2A/	16cc#X'\LL	<
.	16a'\	.
.	16cc#'\	.
.	16ee#X'\	.
.	(16aa\	.
.	16ccc#\	.
.	16aa'\	.
.	16ee#'\JJ)	.
=72	=72	=72
2e#X/ 2c#/ 2G#X/	(16gg#X\LL	[ >
.	16ccc#\	.
.	16gg#\	.
.	16cc#\	.
.	16cc#\	.
.	16gg#\	.
.	16cc#\	.
.	16g#X\JJ)	]]
=73	=73	=73
4a/ 4e#X/ 4c#/	(16ee#X\LL	.
.	16aa\	.
!	!LO:TX:b:t=molto cresc.:ext=ut:problem:dynamics with extention lines	!LO:HP:t=molto cresc.
.	16ee#\	<
.	16a\JJ)	.
4g#X/ 4e#/ 4c#/	(16ee#\LL	.
.	16gg#X\	.
.	16ee#\	.
.	16g#X\JJ)	.
=74	=74	=74
4e#X/ 4c#/ 4A/	(16a\LL	.
.	16cc#\	.
.	16a\	.
.	16e#X\JJ)	.
4e#/ 4c#/ 4G#X/	(16g#X\LL	.
.	16cc#\	.
.	16g#\	[
.	16e#\JJ)	.
*clefF4	*	*
!!LO:LB:g=original
=75	=75	=75
!LO:TX:i:a:t=ms	!	!
16a>\	16ryy	.
16ryy	16cc#/	.
16g#X>\	16ryy	.
16ryy	16cc#/	f
16a>\	16ryy	.
16ryy	16cc#/	.
16g#>\	16ryy	.
16ryy	16cc#/	.
=76	=76	=76
8e#X\L 8c#\ 8G#X\	16g'\LL	.
.	16cc#'\	.
8c#\J 8C#\	16g'\	.
.	16cc#'\JJ	.
8e#\L 8G#\	16g'\LL	.
.	16cc#'\	.
8c#\J 8C#\	16g'\	.
.	16cc#'\JJ	.
=77||	=77||	=77||
*k[f#c#g#]	*k[f#c#g#]	*
8FF#^^\L	4cc#\ 4a^^\	f
8f#\J 8c#\ 8A\	.	.
8D^^\L	4ff#\ 4a^^\	.
8f#\J 8d\ 8A\	.	.
=78	=78	=78
.	32qqff#/	.
8AA\L	8ee#X\L 8a\	.
8c#\J 8A\	8ee#\J 8a\	.
8BB#X\L	8.dd\L 8.g#\	.
8d\J 8B#X\	.	.
.	16ff#\Jk	.
=79	=79	=79
8AA\L	16aa\LL 16f#\	.
.	16g#\	.
8c#\J 8F#\	16aa\ 16a\	.
.	16b#X\JJ	.
16c#\LL 16E#X\	8gg#\L 8cc#\	.
16d\J	.	.
8C#\J	16gg#\L 16cc#\ 16e#X\	.
.	16g#\JJ	.
=80	=80	=80
8F#'\L	(16gg#\LL 16cc#\ 16a\	.
.	16ff#\	.
.	32qqgg#/	.
8C#'\J	16ff#\ 16cc#\ 16a\	.
.	16ee#X\JJ)	.
8FF#\L	4ff#\ 4cc#\ 4a\	.
8c#\J 8A\	.	.
!!LO:LB:g=original
=81	=81	=81
8FF#\L	4cc#\ 4a\	.
8f#\J 8c#\ 8A\	.	.
8D\L	4ff#\ 4a\	.
8f#\J 8d\ 8A\	.	.
=82	=82	=82
.	32qqff#/	.
8AA\L	8ee#X\L 8a\	.
8c#\J 8A\	8ee#\J 8a\	.
8BB#X\L	8.dd\L 8.g#\	.
8d\J 8B#X\	.	.
.	16ff#\Jk	.
=83	=83	=83
8AA\L	16aa\LL 16f#\	.
.	16g#\	.
8c#\J 8F#\	16aa\ 16a\	.
.	16b#X\JJ	.
16c#\LL 16E#X\	8gg#\L 8cc#\	.
16d\J	.	.
8C#\J	16gg#\L 16cc#\ 16e#X\	.
.	16g#\JJ	.
=84	=84	=84
8F#'\L	(16gg#\LL 16cc#\ 16a\	.
.	16ff#\	.
.	32qqgg#/	.
8C#'\J	16ff#\ 16cc#\ 16a\	.
.	16ee#X\JJ)	.
4FF#\	4ff#\ 4cc#\ 4a\	.
=85||	=85||	=85||
8C#'\L	8gg#\L 8cc#\ 8e#X'\	pp
*clefG2	*	*
8cc#\J 8g#\ 8e#X'\	8ee#X'\	.
!	!LO:TX:i:b:t=staccato	!
8a\L 8e#'\	8cc#'\	.
*clefF4	*	*
8E#X'\J	8ee#'\J	.
=86	=86	=86
8GG#'\L	8ee#X\L 8b#X\ 8g#'\	.
*clefG2	*	*
8b#X\J 8f#'\	8dd'\J	.
8cc#\L 8e#X'\	4ee#'\	.
*clefF4	*	*
8GG#'\J	.	.
!!LO:PB:g=original
=87	=87	=87
8D'\L	8ff#\L 8b#X\ 8f#'\	.
*clefG2	*	*
8b#X\ 8f#'\	8gg#'\	.
8dd\ 8a'\	8ff#'\	.
*clefF4	*	*
8AA'\J	8ee#X\J 8cc#\ 8a'\	.
=88	=88	=88
8AA'\L	8ee#X\L 8cc#\ 8a'\	.
*clefG2	*	*
8cc#\J 8a'\	16ff#'\L	.
.	16gg#'\JJ	.
*clefF4	*	*
8F#'\L	8aa\L 8cc#\ 8a'\	.
8E#X'\J	8gg#\J 8cc#\ 8g#'\	.
=89	=89	=89
8C#'\L	8gg#\L 8cc#\ 8e#X'\	.
*clefG2	*	*
8cc#\J 8g#\ 8e#X'\	8ee#X'\	.
8a\L 8d'\	8cc#'\	.
*clefF4	*	*
8E#X'\J	8ee#'\J	.
=90	=90	=90
8GG#'\L	8ee#X\L 8b#X\ 8g#'\	.
*clefG2	*	*
8b#X\J 8f#'\	8dd'\J	.
8cc#\L 8e#X'\	4ee#^^\	.
*clefF4	*	*
8GG#'\J	.	.
=91	=91	=91
8D'\L	8ff#\L 8b#X\ 8f#'\	.
*clefG2	*	*
8b#X\J 8f#'\	8gg#'\J	.
8dd\L 8a'\	8ff#'\L	.
*clefF4	*	*
8AA'\J	8ee#X\J 8cc#\ 8a'\	.
=92	=92	=92
8D'\L	8ff#\L 8b#X\ 8f#'\	.
*clefG2	*	*
8b#X\J 8f#'\	8gg#'\J	.
.	32qqgg#/	.
8cc#\L 8e#X'\	4ccc#\	.
*clefF4	*	*
8C#'\J	.	.
=93||	=93||	=93||
8FF#\L	4cc#\ 4a^^\	f
8f#\J 8c#\ 8A\	.	.
8D\L	4ff#\ 4a^^\	.
8f#\J 8d\ 8A\	.	.
!!LO:LB:g=original
=94	=94	=94
.	32qqff#/	.
8AA\L	8ee#X\L 8a\	.
8c#\J 8A\	8ee#\J 8a\	.
8BB#X\L	8.dd\L 8.g#\	.
8d\J 8B#X\	.	.
.	16ff#\Jk	.
=95	=95	=95
8AA\L	16aa\LL 16f#\	p
.	16g#\	.
8c#\J 8F#\	16aa\ 16a\	.
.	16b#X\JJ	.
16c#\LL 16E#X\	8gg#\L 8cc#\	.
16d\J	.	.
8C#\J	16gg#\L 16cc#\ 16e#X\	.
.	16g#\JJ	.
=96	=96	=96
8F#\L	16gg#\LL 16cc#\ 16a\	.
.	16ff#\	.
.	32qqgg#/	.
8C#\J	16ff#\ 16cc#\ 16a\	.
.	16ee#X\JJ	.
8FF#\L	4ff#\ 4cc#\ 4a\	.
8c#\J 8A\	.	.
=97	=97	=97
8FF#\L	4cc#\ 4a^^\	f
8f#\J 8c#\ 8A\	.	.
8D\L	4ff#\ 4a^^\	.
8f#\J 8d\ 8A\	.	.
=98	=98	=98
.	32qqff#/	.
8AA\L	8ee#X\L 8a\	.
8c#\J 8A\	8ee#\J 8a\	.
8BB#X\L	8.dd\L 8.g#\	.
8d\J 8B#X\	.	.
.	16ff#\Jk	.
=99	=99	=99
8BBn\L	16ddd\LL 16b\	p
.	16cc#\	.
8f#\J 8Bn\	16ddd\ 16dd\	.
.	16ee#X\JJ	.
16f#\LL 16A#X\	8ccc#\L 8ff#\	.
16gn\J	.	.
8F#\J	16ccc#\L 16ff#\ 16a#X\	.
.	16cc#\JJ	.
!!LO:LB:g=original
=100	=100	=100
8B\L	16ccc#\LL 16ff#\ 16dd\	.
.	16bb\	.
.	32qqccc#/	.
8F#\J	16bb\ 16ff#\ 16dd\	.
.	16aa#X\JJ	.
4BB\	4bb\ 4ff#\ 4dd\	.
=101	=101	=101
8GGn\L	16bb'\LL	p
.	16ddd'\	.
8gn\J 8d\ 8B\	16bb'\	.
.	16ggn'\JJ	.
8g\L 8d\ 8B\	16dd'\LL	.
.	16gg'\	.
8gn\J 8e-X\ 8cn\	16ee-X'\	.
.	16ccn'\JJ	.
=102	=102	=102
8D\L	16dd'\LL	.
.	16ccn'\	.
8a-X\J 8f#\ 8cn\	16ee-X'\	.
.	16ff#'\JJ	.
4gn\ 4d\ 4B\	16ggn'\LL	.
.	16dd'\	.
.	16b'\	.
.	16dd'\JJ	.
=103	=103	=103
8GGn\L	16bb'\LL	.
.	16ddd'\	.
8gn\J 8d\ 8B\	16bb'\	.
.	16ggn'\JJ	.
8g\L 8d\ 8B\	16dd'\LL	.
.	16gg'\	.
8gn\J 8e-X\ 8cn\	16ee-X'\	.
.	16ccn'\JJ	.
=104	=104	=104
8C#\L	16cc#X'\LL	.
.	16b'\	.
8gn\J 8e#X\ 8B\	16dd'\	.
.	16ee#X'\JJ	.
4f#\ 4c#\ 4A#X\	16ff#'\LL	.
.	16cc#'\	.
.	16a#X'\	.
.	16cc#'\JJ	.
!!LO:LB:g=original
=105	=105	=105
8FF#\L	16aa#X'\LL	.
.	16ccc#'\	.
8f#\J 8c#\ 8A#X\	16aa#'\	.
.	16ff#\JJ	.
!	!LO:TX:i:b:t=sempre stacc.	!
8f#\L 8c#\ 8A#\	16cc#\LL	.
.	16ff#\	.
8f#\J 8d\ 8B\	16dd\	.
.	16b\JJ	.
=106	=106	=106
8fn\L 8cn\ 8An\	16ccn\LL	.
.	16ffn\	.
8f\J 8d-X\ 8B-X\	16cc#X\	.
.	16b-X\JJ	.
!	!LO:TX:a:t=e cresc.:ext=ut:problem:dynamics with extention lines	!LO:HP:a:t=e cresc.
8e\L 8B-\ 8G#X\	16bn\LL	<
.	16ee\	.
8e\J 8c\ 8A\	16ccn\	.
.	16a\JJ	.
=107	=107	=107
8e-X\L 8B-X\ 8G#\	16b-X\LL	.
.	16ee-X\	.
8e-\J 8c-\ 8A-X\	16cc-X\	.
.	16a-X\JJ	.
8d\L 8An\ 8F#\	16an\LL	.
.	16dd\	.
8d\J 8B-X\ 8Gn\	16b-X\	.
.	16gn\JJ	.
=108	=108	=108
8c#\L 8G#\ 8E#X\	16g#X\LL	.
.	16cc#\	.
8c#\J 8A\ 8F#\	16a\	.
.	16f#\JJ	.
8cn\L 8G#\ 8En\	16gn\LL	.
.	16ccn\	.
8c\J 8A-X\ 8Fn\	16a-X\	[[
.	16fn\JJ	.
=109	=109	=109
8B\L 8F#\ 8D#X\	(16f#X\LL	.
.	16b\	ff
8BB\J	16f#\	.
.	16B\JJ	.
8F#\L 8D#\ 8BB\	16B</LL	.
.	16f#</	.
8FF#\J	16B</	.
.	16F#</JJ)	.
!!LO:LB:g=original
=110	=110	=110
8A\L 8D#X\ 8BB\	(16B</LL	.
.	16gn</	.
8GGn\J	16B</	.
.	16Gn</JJ	.
8D#\L 8BB\ 8GG\	16G</LL	.
.	16B</	.
8DD#X\J	16G</	.
.	16BB</JJ)	.
=111	=111	=111
4FFF#\	(16F#</LL	.
.	16A#X</	.
.	16F#</	.
.	16AA#X</JJ)	.
!	!LO:TX:i:b:t=staccato.	!LO:DY:rj
8CC#\L 8AAA#X\	16AA#</LL	p
.	16FF#</	.
8FF#\J 8CC#\	16AA#</	.
.	16C#</JJ	.
=112	=112	=112
8AA#X\L 8FF#\	16F#</LL	.
.	16C#</	.
8C#\J 8AA#\	16F#</	.
.	16A#X</JJ	.
8F#\L 8C#\	16c#'\LL	.
.	16A#X'\	.
8A#X\J 8F#\	16c#'\	.
.	16f#'\JJ	.
=113	=113	=113
8c#\L 8A#X\	16a#X'\LL	.
.	16f#'\	.
8f#\J 8c#\	16a#'\	.
.	16cc#'\JJ	.
*clefG2	*	*
!	!	!LO:HP:t=cresc. molto
8a#X/L 8f#'/	16ff#\LL	<
.	16cc#\	.
8cc#/J 8a#'/	16ff#\	.
.	16aa#X\JJ	.
=114	=114	=114
8ff#\L 8cc#'\	16ccc#\LL	.
.	16aa#X\	.
8aa#X\J 8ff#'\	16ccc#\	.
.	16fff#\JJ	.
8ccc#\L 8aa#'\	16aaa#X\LL	.
.	16fff#\	.
8fff#\J 8ccc#'\	16aaa#\	.
.	16cccc#\JJ	.
!!LO:LB:g=original
=115	=115	=115
*	*8va	*
4aaa#X\ 4fff#\	4ffff#\	.
*	*X8va	*
4r	4r	.
*clefF4	*	*
=116	=116	=116
*2\right	*2\right	*
2Gn\ 2E#X\ 2C#\	2cc#\ 2e#X\ 2B\	.
.	.	ff
=117	=117	=117
32qqC#\LLL	32qqc#/LLL	.
32qqD\	32qqd/	.
!	!LO:TX:i:b:t=Fine.	!
32qqE#X\JJJ	32qqe#X/JJJ	.
2F#\ 2C#\ 2FF#;\	2f#/ 2c#/ 2A#X;/	.
==	==	==
*-	*-	*-
!!!system-decoration: {(s1,s2)}
!!!RDF**kern: > = above
!!!RDF**kern: < = below
!!!RDF**dynam: f = f.
!!!RDF**dynam: pp = pp.
!!!RDF**dynam: p = p.
!!!EED: Andrzej Borzym
!!!EST: 2021-05-21
!!!AIN: 1 empty 1 forte
!!!ENC: Andrzej Gręziak
!!!END: 2021-05-05
